svgs/sharp-solid/users-rectangle.svg

<svg xmlns="http://www.w3.org/2000/svg" viewBox="0 0 640 512"><!--! Font Awesome Pro 6.6.0 by @fontawesome - https://fontawesome.com License - https://fontawesome.com/license (Commercial License) Copyright 2024 Fonticons, Inc. --><path d="M32 0L0 0 0 32 0 480l0 32 32 0 576 0 32 0 0-32 0-448 0-32L608 0 32 0zM64 448L64 64l512 0 0 384L64 448zM223.8 176a48 48 0 1 0 -96 0 48 48 0 1 0 96 0zM120 256L96 336l94.3 0 19.4-58.1 7.3-21.9L120 256zm329.7 80l94.3 0-24-80-96.9 0 7.3 21.9L449.7 336zM432 384l-16-48-16-48-17.6 0-124.8 0L240 288l-16 48-16 48 224 0zm80-208a48 48 0 1 0 -96 0 48 48 0 1 0 96 0zM320 256a64 64 0 1 0 0-128 64 64 0 1 0 0 128z"/></svg>

<svg xmlns="http://www.w3.org/2000/svg" viewBox="0 0 640 512"><!--! Font Awesome Pro 6.4.0 by @fontawesome - https://fontawesome.com License - https://fontawesome.com/license (Commercial License) Copyright 2023 Fonticons, Inc. --><path d="M32 0H0V32 480v32H32 608h32V480 32 0H608 32zM64 448V64H576V448H64zM223.8 176a48 48 0 1 0 -96 0 48 48 0 1 0 96 0zM120 256L96 336h94.3l19.4-58.1 7.3-21.9H120zm329.7 80H544l-24-80H423.1l7.3 21.9L449.7 336zM432 384l-16-48-16-48H382.4 257.6 240l-16 48-16 48H432zm80-208a48 48 0 1 0 -96 0 48 48 0 1 0 96 0zM320 256a64 64 0 1 0 0-128 64 64 0 1 0 0 128z"/></svg>
